X: 22982
T: Lasses Of Ballintra, The
R: reel
M: 4/4
K: Gmajor
G2 Bd edBG|G2 BG AGEF|G2 Bd edBd|gbag eg g2:|
dg g2 bg g2|agbg ageg|dg g2 bg g2|gbag ef g2|
dg g2 bg g2|agbg agef|g2 fg edBd|eaab gedB|

